!!!COM: Mozart, Wolfgang Amadeus
!!!OPR: Quartet in D Major
!!!OTL:
!!!OMV: 1
!!!SCT: K 499
!!!SCA: Chronologisch-thematisches Verzeichnis sämtlicher Tonwerke Wolfgang Amade Mozarts (L. von Köchel; 1862, 2/1905, 3/1937, 1947)
!!!YOR: Breitkopf & Härtel Edition
!!!EED: Frances Bennion
!!!ENC: Frances Bennion
!!!CDT: 1756/1/27/-1791/12/5/
!!!OCY: Österreich
!!!YEC: Copyright (c) 1994, 2000 Center for Computer Assisted Research in the Humanities
!!!YEM: Rights to all derivative editions reserved.
!!!YEM: Refer to licensing agreement for further details.
!!!YEN: United States of America
**kern	**kern	**kern	**kern
*k[f#c#]	*k[f#c#]	*k[f#c#]	*k[f#c#]
*D:	*D:	*D:	*D:
*clefG	*clefG	*clefF	*clefC
*M2/2	*M2/2	*M2/2	*M2/2
*tb24	*tb24	*tb24	*tb24
=0-	=0-	=0-	=0-
2.r	2.r	2.r	2.r
4ff#	4ff#	4f#	4f#
=1	=1	=1	=1
8dd	8dd	8d	8d
8r	8r	8r	8r
4dd	4dd	4d	4d
8f#	8f#	8F#	8F#
8r	8r	8r	8r
4f#	4f#	4F#	4F#
=2	=2	=2	=2
2.a	2.a	2.A	2.A
8.f#	8.f#	8.F#	8.F#
16d	16d	16D	16D
=3	=3	=3	=3
4A	4A	4A	4AA
4A	4A	4A	4AA
4A	4A	4A	4AA
4A	4A	4A	4AA
=4	=4	=4	=4
2.A	[1A	2.A	[1AA
8.g	.	8.C#	.
16e	.	16E	.
=5	=5	=5	=5
4c#	1A_	4G	1AA_
4c#	.	4G	.
4c#	.	4G	.
4c#	.	4G	.
=6	=6	=6	=6
2.c#	2.A]	2.G	4AA]
.	.	.	8.E
.	.	.	16C#
.	.	.	[2AA
8.b	8.g	8.C#	.
16g	16e	16E	.
=7	=7	=7	=7
4e	4c#	4G	1AA_
4e	4c#	4G	.
4e	4c#	4G	.
4e	4c#	4G	.
=8	=8	=8	=8
2.e	2.c#	2.G	4AA]
.	.	.	8.E
.	.	.	16C#
.	.	.	[2AA
8.ee	8.cc#	8.E	.
16cc#	16g	16G	.
=9	=9	=9	=9
4g	4e	4c#	4AA]
4g	4e	4c#	4AA
4g	4e	4c#	4AA#
4g	4e	4c#	4AA#
=10	=10	=10	=10
4f#	2d	4d	4BB
4b	.	4B	4GG
4r	4r	4r	4r
4c#	[4A	4E	4GG
=11	=11	=11	=11
4d	4A]	4F#	4FF#
4g	2d	4G	4BB
4f#	.	4A	4AA
4e	4c#	4A 4G	4AA
=12	=12	=12	=12
2e	2c#	[2A 2G	4D
.	.	.	4AA
4f#	4d	4A 4F#]	4DD
4ddd	4r	4r	4r
=13	=13	=13	=13
8ff#	4r	1r	1r
8r	.	.	.
4ff#	8.dd	.	.
.	16b	.	.
8bb	4g	.	.
8r	.	.	.
4bb	8.g	.	.
.	16e	.	.
=14	=14	=14	=14
4ee	4c#	1r	1r
2aa	8.f#	.	.
.	16d	.	.
.	4B	.	.
8.gg	8.b	.	.
16ee	16g	.	.
=15	=15	=15	=15
4dd	4f#	1r	1r
4dd	8.b	.	.
.	16g#	.	.
4dd	4a	.	.
8.ee	4A	.	.
16ff#	.	.	.
=16	=16	=16	=16
4dd	4d	2.r	1r
2.r	8.f#	.	.
.	16a	.	.
.	4dd	.	.
.	4r	4dd	.
=17	=17	=17	=17
1r	1r	8f#	4r
.	.	8r	.
.	.	4f#	8.d
.	.	.	16B
.	.	8b	4G
.	.	8r	.
.	.	4b	8.G
.	.	.	16E
=18	=18	=18	=18
1r	1r	4e	4C#
.	.	2a	8.F#
.	.	.	16D
.	.	.	4BB
.	.	8.g	8.B
.	.	16e	16G
=19	=19	=19	=19
1r	1r	4d	4F#
.	.	4d	8.B
.	.	.	16G#
.	.	4d	4A
.	.	8.e	4AA
.	.	16f#	.
=20	=20	=20	=20
4r	4r	4d	4D
8dd	4b	2.r	2.r
8ee	.	.	.
8ff#	4a	.	.
8gg	.	.	.
8ee	4A	.	.
8ff#	.	.	.
=21	=21	=21	=21
4dd	4d	4r	4r
2.r	2.r	8d	4B
.	.	8e	.
.	.	8f#	4A
.	.	8g	.
.	.	8e	4AA
.	.	8f#	.
=22	=22	=22	=22
4r	4r	4d	4D
8.ee	4a	2r	2r
16ff#	.	.	.
4dd	4f#	.	.
4r	4r	8.e	4A
.	.	16f#	.
=23	=23	=23	=23
4r	4r	4d	4F#
4ff#	4a	4f#	2D
4gg#	4b	4e	.
4aa#	4ee	4e	4C#
=24	=24	=24	=24
2bb	2dd	2f#	2BB
2ff#	2cc#	2f#	2AA#
=25	=25	=25	=25
4.dd	2b	2f#	2BB
16cc#	.	.	.
16dd	.	.	.
[2b	4r	4r	4r
.	4f#	4d	4d
=26	=26	=26	=26
4b]	2g	2e	2c#
4a#	.	.	.
4gg	4r	4r	4r
4ff#	4cc#	[4f#	4A#
=27	=27	=27	=27
2ee	2cc#	4f#]	4B
.	.	4a#	2BB
4dd	4b	4b	.
4r	4r	4r	8C#
.	.	.	8D
=28	=28	=28	=28
2dd	[1g#	[1B	4E
.	.	.	4G#
4dd	.	.	4B
4dd	.	.	4G#
=29	=29	=29	=29
8ee	8g#]	4B]	4E
8dd	8b	.	.
8cc#	8a	4E	2.r
8b	8g#	.	.
[2b	[2g#	4e	.
.	.	4e	.
=30	=30	=30	=30
8b]	8g#]	[1e	1r
8cc#	8a	.	.
8dd	8b	.	.
8dd#	8b#	.	.
4ee	4cc#	.	.
4dd	4b	.	.
=31	=31	=31	=31
4b#	4g#	2.e]	4r
4cc#	4a	.	4AA
4r	4r	.	4A
4ee	4e	4c#	4A
=32	=32	=32	=32
4.ff#	4.f#	4.d	[1A
8gg#	8g#	8e	.
8aa	8a	8f#	.
8gg#	8g#	8e	.
8aa	8a	8f#	.
8ff#	8f#	8d	.
=33	=33	=33	=33
4ee	4e	4c#	4A]
4cc#	4c#	4A	4AA
4r	4r	4r	4A
4ee	4e	4c#	4A
=34	=34	=34	=34
8ff#	8f#	8d	[1A
8gg#	8g#	8e	.
8aa	8a	8f#	.
8gg#	8g#	8e	.
8aa	8a	8f#	.
8gg#	8g#	8e	.
8aa	8a	8f#	.
8ff#	8f#	8d	.
=35	=35	=35	=35
4ee	4e	4c#	4A]
4cc#	4c#	4A	4AA
8r	8r	[2e	8r
8ee	8cc#	.	8A
8dd	8b	.	8B
8cc#	8a	.	8c#
=36	=36	=36	=36
8b	8g#	8e]	8d
8b	8g#	8e	8d
4b	4g#	8e	4d
.	.	8e	.
8r	8r	[2e	8r
8ee	8cc#	.	8A
8dd	8b	.	8B
8cc#	8a	.	8c#
=37	=37	=37	=37
8b	8g#	8e]	8d
8b	8g#	8e	8d
4b	4g#	8e	4d
.	.	8e	.
8r	8r	2e	8r
8ee	8cc	.	8A
8dd	8b	.	8B
8cc	8a	.	8c
=38	=38	=38	=38
4b	4g#	4f	4d
4b	4g#	4f	4d
4b	4g#	4f	4d
4b	4g#	4f	4d
=39	=39	=39	=39
2.b	1a	1f#	2d#
.	.	.	2D#
8cc	.	.	.
8b	.	.	.
=40	=40	=40	=40
4b	8g#	4B	4E
.	8e	.	.
2r	8g#	2.r	2.r
.	8e	.	.
.	8B	.	.
.	8e	.	.
4bb	8g#	.	.
.	8e	.	.
=41	=41	=41	=41
8gg#	8B	4r	2.r
8r	8e	.	.
4gg#	8g#	4e	.
.	8e	.	.
8b	8d#	8f#	.
8r	8f#	8r	.
4b	8a	4d#	4B
.	8f#	.	.
=42	=42	=42	=42
4ee	8e	4b	8G#
.	8g#	.	8r
2r	8b	2.r	4G#
.	8g#	.	.
.	8d#	.	8BB
.	8f#	.	8r
4bb	8a	.	4BB
.	8f#	.	.
=43	=43	=43	=43
8gg#	8B	4r	4E
8r	8e	.	.
4gg#	8g#	4e	2r
.	8e	.	.
8b	8d#	8f#	.
8r	8f#	8r	.
4b	8a	4d#	4B
.	8f#	.	.
=44	=44	=44	=44
2.ee	8e	2b	8G#
.	8g#	.	8r
.	8b	.	4G#
.	8g#	.	.
.	8e	2g#	8BB
.	8g#	.	8r
8.dd	8b	.	4BB
.	8g#	.	.
16b	.	.	.
=45	=45	=45	=45
8g#	8d	2B	2.E
8r	8e	.	.
4g#	8g#	.	.
.	8e	.	.
8b	8d	2G#	.
8r	8e	.	.
4b	8g#	.	8.D
.	8e	.	.
.	.	.	16BB
=46	=46	=46	=46
2.e	8B	[1E	8GG#
.	8d	.	8r
.	8e	.	4GG#
.	8d	.	.
.	8G#	.	8BB
.	8B	.	8r
8f#	8d	.	4BB
8e	8B	.	.
=47	=47	=47	=47
4e	8G#	1E_	2.EE
.	8B	.	.
4e	8d	.	.
.	8B	.	.
4d	8G#	.	.
.	8B	.	.
4d	8d	.	8FF#
.	8B	.	8EE
=48	=48	=48	=48
4c#	8A	1E_	4EE
.	8c#	.	.
2r	8e	.	4EE
.	8c#	.	.
.	8B	.	4DD
.	8e	.	.
12e	8g#	.	4DD
12f#	.	.	.
.	8e	.	.
12g#	.	.	.
=49	=49	=49	=49
4a	8c#	1E_	4CC#
.	8e	.	.
4a	8a	.	2r
.	8e	.	.
4b	8d	.	.
.	8e	.	.
4b	8g#	.	12EE
.	.	.	12FF#
.	8e	.	.
.	.	.	12GG#
=50	=50	=50	=50
12cc#	8c#	1E_	4AA
12dd	.	.	.
.	8e	.	.
12cc#	.	.	.
12a	8a	.	4AA
12b	.	.	.
.	8e	.	.
12cc#	.	.	.
12dd	8d	.	4BB
12ee	.	.	.
.	8e	.	.
12dd	.	.	.
12b	8g#	.	4BB
12cc#	.	.	.
.	8e	.	.
12dd	.	.	.
=51	=51	=51	=51
4ee	8e	4E]	12C#
.	.	.	12D
.	8a	.	.
.	.	.	12C#
4r	8cc#	2e	12AA
.	.	.	12BB
.	8a	.	.
.	.	.	12C#
4ff#	8f#	.	12D
.	.	.	12E
.	8a	.	.
.	.	.	12D
4r	8dd	8d	12BB
.	.	.	12C#
.	8a	8f#	.
.	.	.	12D
=52	=52	=52	=52
4gg#	4dd	4b	4E
4aa	4cc#	4a	4F#
4r	2r	2r	2r
4a	.	.	.
=53	=53	=53	=53
[1dd	1r	4r	2.r
.	.	4A	.
.	.	2f#	.
.	.	.	4AA
=54	=54	=54	=54
1dd_	4r	1f	2.D
.	4d	.	.
.	4b-	.	.
.	4a	.	4BB
=55	=55	=55	=55
4dd]	2g#	2e	4E
4ee	.	.	4C#
8dd	[2a	4A	4F#
8cc#	.	.	.
8b	.	4e	4C#
8a	.	.	.
=56	=56	=56	=56
1b	2a]	2f#	4D
.	.	.	4BB
.	2g#	4e	4E
.	.	4d	4EE
=57	=57	=57	=57
4a	8a	4c#	2FF#
.	8f#	.	.
2.r	8c#	2.r	.
.	8B	.	.
.	8A	.	4r
.	8c#	.	.
.	8f#	.	4FF#
.	8c#	.	.
=58	=58	=58	=58
1cc#	8B	1r	2EE#
.	8c#	.	.
.	8g#	.	.
.	8c#	.	.
.	8B	.	4r
.	8c#	.	.
.	8e#	.	4CC#
.	8c#	.	.
=59	=59	=59	=59
2a	8f#	1r	2FF#
.	8c#	.	.
.	8A	.	.
.	8c#	.	.
2f#	8A	.	8r
.	8c#	.	8FF#
.	8f#	.	8AA
.	8c#	.	8FF#
=60	=60	=60	=60
2.c#	8G#	1r	2EE#
.	8B	.	.
.	8c#	.	.
.	8B	.	.
.	8G#	.	8r
.	8B	.	8CC#
8d	8G#	.	8EE#
8c#	8B	.	8CC#
=61	=61	=61	=61
2.c#	8A	2.r	[1FF#
.	8c#	.	.
.	8f#	.	.
.	8c#	.	.
.	8A	.	.
.	8c#	.	.
4ccc#	8f#	4cc#	.
.	8c#	.	.
=62	=62	=62	=62
8aa	8f#	8a	1FF#]
8r	8c#	8r	.
4aa	8A	4a	.
.	8c#	.	.
8cc#	8A	8c#	.
8r	8c#	8r	.
4cc#	8f#	4c#	.
.	8c#	.	.
=63	=63	=63	=63
2.ee	8A	2.e	[1EE
.	8c#	.	.
.	8e	.	.
.	8c#	.	.
.	8A	.	.
.	8c#	.	.
8.cc#	8e	8.c#	.
.	8c#	.	.
16a	.	16A	.
=64	=64	=64	=64
4e	8G#	4E	1EE]
.	8B	.	.
4e	8d	4E	.
.	8B	.	.
4e	8d	4E	.
.	8B	.	.
4g#	8e	4G#	.
.	8d	.	.
=65	=65	=65	=65
4a	8c	4A	2FF
.	8f	.	.
2.r	8a	16dd	.
.	.	8.cc	.
.	8f	.	.
.	8A	[2cc	4r
.	8c	.	.
.	8f	.	4FF
.	8c	.	.
=66	=66	=66	=66
2.r	8B-	4cc]	2EE
.	8c	.	.
.	8g	16b	.
.	.	8.cc	.
.	8c	.	.
.	8G	[2cc	4r
.	8c	.	.
16ccc	8e	.	4CC
8.bb-	.	.	.
.	8c	.	.
=67	=67	=67	=67
2.aa	8A	4cc]	2FF
.	8c	.	.
.	8f	16dd	.
.	.	8.cc	.
.	8c	.	.
.	8A	[2cc	8r
.	8c	.	8FF
16gg#	8f	.	8AA
8.aa	.	.	.
.	8c	.	8FF
=68	=68	=68	=68
2.bb-	8G	4cc]	2EE
.	8c	.	.
.	8g	16b	.
.	.	8.cc	.
.	8c	.	.
.	8G	[2cc	8r
.	8e	.	8CC
16ccc	8g	.	8EE
8.bb-	.	.	.
.	8e	.	8CC
=69	=69	=69	=69
2.aa	8f	4cc]	[1FF
.	8a	.	.
.	8f	16dd	.
.	.	8.cc	.
.	8c	.	.
.	8A	4cc	.
.	8c	.	.
4ccc	8f	4cc	.
.	8c	.	.
=70	=70	=70	=70
8aa	8d#	8a	1FF]
8r	8c	8r	.
4aa	8d#	4a	.
.	8c	.	.
8cc	8A	8c	.
8r	8c	8r	.
4cc	8d#	4c	.
.	8c	.	.
=71	=71	=71	=71
2.ee	8A	2.e	[1EE
.	8c#	.	.
.	8e	.	.
.	8c#	.	.
.	8A	.	.
.	8c#	.	.
8.cc#	8e	8.c#	.
.	8c#	.	.
16a	.	16A	.
=72	=72	=72	=72
4e	8G#	4E	1EE]
.	8B	.	.
4e	8d	4E	.
.	8B	.	.
4e	8d	4E	.
.	8B	.	.
4g#	8e	4G#	.
.	8d	.	.
=73	=73	=73	=73
4a	4c#	4A	4AA
8a	2r	2r	2r
16g#	.	.	.
16a	.	.	.
4f#	.	.	.
8b	4f#	4B	4D
8r	.	.	.
=74	=74	=74	=74
4r	4a	4f#	4D#
8cc#	4g#	4e	4E
16b	.	.	.
16cc#	.	.	.
4a	4r	4r	4r
8dd	4a	4d	4F#
8r	.	.	.
=75	=75	=75	=75
4r	2b	4f	4G
8ee	.	2e	4G#
16dd	.	.	.
16ee	.	.	.
4cc#	4a	.	4A
4ff#	8a	4c	4D#
.	16g#	.	.
.	16a	.	.
=76	=76	=76	=76
4b	4g#	4B	4E
4ee	8g	4B-	4C#
.	16f#	.	.
.	16g	.	.
4a	4f#	4A	4D
[4dd	8f	8G#	4BB
.	16e	8A	.
.	16f	.	.
=77	=77	=77	=77
4dd]	2e	4B	4GG#
4cc#	.	4A	4AA
8cc#	8e	4f#	4D
8b	8d	.	.
8b	8d	4e	4E
8g#	8B	.	.
=78	=78	=78	=78
4a	4c#	4e	4AA
2r	2r	8c#	8A
.	.	16B	16G#
.	.	16c#	16A
.	.	4A	4F#
8dd	8b	8d	8B
16cc#	16a	8r	8r
16dd	16b	.	.
=79	=79	=79	=79
4b	4g#	4r	4r
8ee	8cc#	8e	8c#
4.r	4.r	16d	16B
.	.	16e	16c#
.	.	4c#	4A
8ff#	8dd	8f#	8d
16ee	16cc#	8r	8r
16ff#	16dd	.	.
=80	=80	=80	=80
4dd	4b	4r	4r
2gg#	2ee	8g#	8e
.	.	16f#	16d
.	.	16g#	16e
.	.	4e	4c#
8aa	4dd#	4cc	4f#
16gg#	.	.	.
16aa	.	.	.
=81	=81	=81	=81
4gg#	4dd	4b	4B
8gg	4cc#	4b-	4e
16ff#	.	.	.
16gg	.	.	.
4ff#	4cc	4a	4A
8ff	[4b	[4g#	[4d
16ee	.	.	.
16ff	.	.	.
=82	=82	=82	=82
[2ee	4b]	4g#]	4d]
.	4.cc#	4a	4c#
8ee]	.	4f#	4d
8dd	8b	.	.
8cc#	8a	4e	4e
8b	8g#	.	.
=83	=83	=83	=83
4a	8a	8e 8c#	2.A
.	8a	8e 8c#	.
16ccc#	8a	8e 8c#	.
8.ee	.	.	.
.	8a	8e 8c#	.
[2ee	8a	8e 8c#	.
.	8a	8e 8c#	.
.	8a	8e 8c#	16C#
.	.	.	8.E
.	8a	8e 8c#	.
=84	=84	=84	=84
4ee]	8a	8e 8c#	2.A
.	8a	8e 8c#	.
16ccc#	8a	8e 8c#	.
8.ee	.	.	.
.	8a	8e 8c#	.
4ee	8a	8e 8c#	.
.	8a	8e 8c#	.
4ee	8a	8e 8c#	16AA
.	.	.	8.C#
.	8a	8e 8c#	.
=85	=85	=85	=85
4ff#	8a	8f# 8B	2.D
.	8a	8f# 8B	.
16ddd	8a	8f# 8B	.
8.ff#	.	.	.
.	8a	8f# 8B	.
[2ff#	8a	8f# 8B	.
.	8a	8f# 8B	.
.	8dd	8a	16B
.	.	.	8.d
.	8cc#	8a	.
=86	=86	=86	=86
8ff#]	8b	8a	2e
8ee	8b	8a	.
8ee	8b	8g#	.
8ee	8b	8g#	.
4ee	8b	8g#	2E
.	8b	8g#	.
8ff#	8cc#	8a	.
8gg#	8dd	8b	.
=87	=87	=87	=87
4aa	8cc#	8a	2.A
.	8a	8e 8c#	.
16ccc#	8a	8e 8c#	.
8.ee	.	.	.
.	8a	8e 8c#	.
[2ee	8a	8e 8c#	.
.	8a	8e 8c#	.
.	8a	8e 8c#	16C#
.	.	.	8.E
.	8a	8e 8c#	.
=88	=88	=88	=88
4ee]	8a	8e 8c#	2.A
.	8a	8e 8c#	.
16ccc#	8a	8e 8c#	.
8.ee	.	.	.
.	8a	8e 8c#	.
4ee	8a	8e 8c#	.
.	8a	8e 8c#	.
4ee	8a	8e 8c#	16AA
.	.	.	8.C#
.	8a	8e 8c#	.
=89	=89	=89	=89
4ff#	8a	8f# 8B	2.D
.	8a	8f# 8B	.
16ddd	8a	8f# 8B	.
8.ff#	.	.	.
.	8a	8f# 8B	.
[2ff#	8a	8f# 8B	.
.	8a	8f# 8B	.
.	8dd	8a	16B
.	.	.	8.d
.	8cc#	8a	.
=90	=90	=90	=90
8ff#]	8b	8a	2e
8ee	8b	8a	.
8ee	8b	8g#	.
8ee	8b	8g#	.
4ee	8b	8g#	2E
.	8b	8g#	.
8ff#	8cc#	8a	.
8gg#	8dd	8b	.
=91	=91	=91	=91
4aa	8cc#	4.a	4F#
.	4ff#	.	.
16ddd	.	.	2BB
8.ff#	.	.	.
.	8ee	8g#	.
[2ff#	8dd	8f#	.
.	8cc#	8e	.
.	8b	8d	8C#
.	8a	8c#	8D
=92	=92	=92	=92
8ff#]	8g#	8B	2E
8ee	8g#	8B	.
8ee	8a	8c#	.
8ee	8a	8c#	.
4ee	8b	8d	2EE
.	8dd	8f#	.
8ff#	8cc#	8e	.
8gg#	8b	8d	.
=93	=93	=93	=93
4aa	8a	8c#	4FF#
.	4ff#	4a	.
16ddd	.	.	2BB
8.ff#	.	.	.
.	8ee	8g#	.
[2ff#	8dd	8f#	.
.	8cc#	8e	.
.	8b	8d	8C#
.	8a	8c#	8D
=94	=94	=94	=94
8ff#]	8g#	8B	2E
8ee	8g#	8B	.
8ee	8a	8c#	.
8ee	8a	8c#	.
4ee	8b	8d	2EE
.	8dd	8f#	.
8ff#	8cc#	8e	.
8gg#	8b	8d	.
=95	=95	=95	=95
8aa	8a	8c#	4AA
8ee	8c#	8A	.
8ee	8c#	8A	4C#
8ee	8c#	8A	.
4ee	8d	8B	4E
.	8d	8B	.
8ff#	8d	8B	4EE
8gg#	8d	8B	.
=96	=96	=96	=96
8aa	8c#	8A	4AA
8ee	8c#	8A	.
8ee	8c#	8A	4C#
8ee	8c#	8A	.
4ee	8d	8B	4E
.	8d	8B	.
8ff#	8d	8B	4EE
8gg#	8d	8B	.
=97	=97	=97	=97
8aa	8c#	8A	8AA
8ccc#	8ee	8r	8r
8bb	8dd	8g#	8E
8ccc#	8ee	8r	8r
8aa	8cc#	8a	8A
8ccc#	8ee	8r	8r
8bb	8dd	8g#	8E
8ccc#	8ee	8r	8r
=98	=98	=98	=98
4aa	4cc#	4a	4AA
4r	4r	4r	4r
4r	4r	4r	4r
4r	4r	4r	4r
=99	=99	=99	=99
8aa	8cc	8e	8AA
8ccc	8ee	8r	8r
8bb	8dd	8g#	8E
8ccc	8ee	8r	8r
8aa	8cc	8a	8A
8ccc	8ee	8r	8r
8bb	8dd	8g#	8E
8ccc	8ee	8r	8r
=100	=100	=100	=100
4aa	4cc	4a	4AA
2.r	2.r	2.r	2.r
=101	=101	=101	=101
4ccc	8ee	8g	1r
.	8gg	8b-	.
4ccc	8ff	8a	.
.	8gg	8b-	.
4ccc	8ee	8g	.
.	8gg	8b-	.
4ccc	8ff	8a	.
.	8gg	8b-	.
=102	=102	=102	=102
[1ccc	8ee	8g	2.r
.	8gg	8b-	.
.	8ff	8a	.
.	8gg	8b-	.
.	8ee	8g	.
.	8gg	8b-	.
.	8ff	8a	4A
.	8ee	8g	.
=103	=103	=103	=103
1ccc_	8ff	8a	8F
.	8aa	8cc	8r
.	8gg	8b-	4F
.	8aa	8cc	.
.	8ff	8a	8AA
.	8aa	8cc	8r
.	8gg	8b-	4AA
.	8aa	8cc	.
=104	=104	=104	=104
1ccc_	8ff	8a	2.C
.	8aa	8cc	.
.	8gg	8b-	.
.	8aa	8cc	.
.	8ff	8a	.
.	8aa	8cc	.
.	8gg	8b-	8.AA
.	8ff	8a	.
.	.	.	16FF
=105	=105	=105	=105
8ccc]	8gg	4b-	4CC
8ggg	8bb-	.	.
8fff	8aa	2.r	4CC
8ggg	8bb-	.	.
8eee	8gg	.	4CC
8ggg	8bb-	.	.
8fff	8aa	.	4CC
8ggg	8bb-	.	.
=106	=106	=106	=106
8eee	8gg	2.r	[1CC
8ggg	8bb-	.	.
8fff	8aa	.	.
8ggg	8bb-	.	.
8eee	8gg	.	.
8ggg	8bb-	.	.
8fff	8aa	4a	.
8eee	8gg	.	.
=107	=107	=107	=107
8fff	8aa	8f	4CC]
8ccc	8aa	8r	.
8bb-	8gg	4f	2.r
8ccc	8aa	.	.
8aa	8ff	8A	.
8ccc	8aa	8r	.
8bb-	8gg	4A	.
8ccc	8aa	.	.
=108	=108	=108	=108
8aa	8ff	2.c	1r
8ccc	8aa	.	.
8bb-	8gg	.	.
8ccc	8aa	.	.
8aa	8ff	.	.
8ccc	8aa	.	.
8bb-	8gg	8.A	.
8aa	8ff	.	.
.	.	16F	.
=109	=109	=109	=109
8bb-	4gg	4C#	8r
8bb-	.	.	8g
8aa	2.r	4C#	8f
8bb-	.	.	8g
8gg	.	4C#	8e
8bb-	.	.	8g
8aa	.	4C#	8f
8bb-	.	.	8g
=110	=110	=110	=110
8gg	2.r	2C#	8e
8bb-	.	.	8g
8aa	.	.	8f
8bb-	.	.	8g
8gg	.	2A	8e
8bb-	.	.	8g
8aa	4ff	.	8f
8gg	.	.	8e
=111	=111	=111	=111
8aa	8dd	4D	8f
8aa	8r	.	8f
8gg	4dd	2.r	8e
8aa	.	.	8f
8ff	8f	.	8d
8aa	8r	.	8f
8gg	4f	.	8e
8aa	.	.	8f
=112	=112	=112	=112
8ff	2.a	1r	8d
8aa	.	.	8f
8gg	.	.	8e
8aa	.	.	8f
8ff	.	.	8d
8aa	.	.	8f
8gg	8.f	.	8e
8ff	.	.	8d
.	16d	.	.
=113	=113	=113	=113
4gg	4A	8r	8e
.	.	8g	8e
2.r	4A	8f	8d
.	.	8g	8e
.	4A	8e	8c#
.	.	8g	8e
.	4A	8f	8d
.	.	8g	8e
=114	=114	=114	=114
2.r	[1A	8e	8c#
.	.	8g	8e
.	.	8f	8d
.	.	8g	8e
.	.	8e	8c#
.	.	8g	8e
4fff	.	8f	8d
.	.	8e	8c#
=115	=115	=115	=115
8ddd	8A]	8f	4d
8r	8f	8A	.
4ddd	8e	8G	2.r
.	8f	8A	.
8ff	8d	8F	.
8r	8f	8A	.
4ff	8e	8G	.
.	8f	8A	.
=116	=116	=116	=116
2.aa	8d	8F	2.r
.	8f	8A	.
.	8e	8G	.
.	8f	8A	.
.	8d	8F	.
.	8f	8A	.
8.ff	8e	8G	4DD
.	8d	8F	.
16dd	.	.	.
=117	=117	=117	=117
4a	8e-	8c	8FF
.	8e-	8c	8r
4a	8d	8B-	4FF
.	8e-	8c	.
4a	8c	8A	8AA
.	8e-	8c	8r
4a	8d	8B-	4AA
.	8e-	8c	.
=118	=118	=118	=118
2.a	8c	8A	2.C
.	8e-	8c	.
.	8d	8B-	.
.	8e-	8c	.
.	8c	8A	.
.	8e-	8c	.
4ddd	8d	8B-	8.F
.	8c	8A	.
.	.	.	16E-
=119	=119	=119	=119
8bb-	8d	8B-	4D
8r	8f	8d	.
4bb-	8e-	8c	2.r
.	8f	8d	.
8dd	8d	8B-	.
8r	8f	8d	.
4dd	8e-	8c	.
.	8f	8d	.
=120	=120	=120	=120
2.ff	8d	8B-	2.r
.	8f	8d	.
.	8e-	8c	.
.	8f	8d	.
.	8d	8B-	.
.	8f	8d	.
8.dd	8e-	8c	4BB-
.	8d	8B-	.
16b-	.	.	.
=121	=121	=121	=121
4f#	8c	8A	8D
.	8e-	8c	8r
4f#	8d	8B-	4D
.	8e-	8c	.
4f#	8c	8A	8F#
.	8e-	8c	8r
4f#	8d	8B-	4F#
.	8e-	8c	.
=122	=122	=122	=122
2.f#	8c	8A	2.A
.	8cc	8e-	.
.	8b-	8d	.
.	8cc	8e-	.
.	8a	8c	.
.	8cc	8a	.
4bb-	8b-	8g	8.d
.	8a	8f#	.
.	.	.	16c
=123	=123	=123	=123
8gg	8b-	8g	4B-
8r	8b-	8d	.
4gg	8a	8c	2.r
.	8b-	8d	.
8b-	8g	8B-	.
8r	8b-	8d	.
4b-	8a	8c	.
.	8b-	8d	.
=124	=124	=124	=124
2.dd	8g	8B-	2.r
.	8d	8B-	.
.	8c	8A	.
.	8d	8B-	.
.	8B-	8G	.
.	8d	8B-	.
8.b-	8c	8A	4GG
.	8B-	8G	.
16g	.	.	.
=125	=125	=125	=125
4d	8A-	8F	8BB-
.	8f	8A-	8r
4d	8e-	8G	4BB-
.	8f	8A-	.
4d	8d	8F	8D
.	8a-	8f	8r
4d	8g	8e-	4D
.	8a-	8f	.
=126	=126	=126	=126
2d	8f	8d	2.F
.	8a-	8f	.
.	8g	8e-	.
.	8a-	8f	.
[2b-	8f	8d	.
.	8a-	8f	.
.	8g	8e-	8.D
.	8f	8d	.
.	.	.	16BB-
=127	=127	=127	=127
4b-]	8g	8e-	2.G
.	8b-	8g	.
8.gg	8a-	8f	.
.	8b-	8g	.
16ee-	.	.	.
[2b-	8g	8e-	.
.	8b-	8g	.
.	8a-	8f	8.E-
.	8g	8e-	.
.	.	.	16BB-
=128	=128	=128	=128
4b-]	8f	8d	2.A-
.	8ff	8a-	.
8.aa-	8ee-	8g	.
.	8ff	8a-	.
16ff	.	.	.
[2b-	8dd	8f	.
.	8ff	8a-	.
.	8ee-	8g	8.F
.	8dd	8f	.
.	.	.	16BB-
=129	=129	=129	=129
4b-]	8ee-	8g	2.B-
.	8gg	8b-	.
8.bb-	8ff	8a-	.
.	8gg	8b-	.
16gg	.	.	.
[2b-	8ee-	8g	.
.	8gg	8b-	.
.	8ff	8a-	8.G
.	8ee-	8g	.
.	.	.	16E-
=130	=130	=130	=130
4b-]	2dd	2a-	[1BB-
8.aa-	.	.	.
16ff	.	.	.
4dd	2g#	2f	.
8.ff	.	.	.
16dd	.	.	.
=131	=131	=131	=131
4a-	2f	2d	1BB-]
8.dd	.	.	.
16a-	.	.	.
4f	2d	2A-	.
8.a-	.	.	.
16f	.	.	.
=132	=132	=132	=132
4d	[1G#	[1F	4BB-
4d	.	.	8.F
.	.	.	16D
4d	.	.	4BB-
4d	.	.	8.F
.	.	.	16D
=133	=133	=133	=133
4d	1G#]	4F]	1BB-
4f	.	4D	.
4e	.	4C#	.
4d	.	4D	.
=134	=134	=134	=134
8c#	8A	4E	4AA
8e	8c#	.	.
8d	8B	2.r	2r
8e	8c#	.	.
8c#	8A	.	.
8e	8c#	.	.
8d	8B	.	4AA
8e	8c#	.	.
=135	=135	=135	=135
8c#	8A	1r	8C#
8g	8e	.	8r
8f#	8d	.	4C#
8g	8e	.	.
8e	8c#	.	8E
8g	8e	.	8r
8f#	8d	.	4E
8g	8e	.	.
=136	=136	=136	=136
8e	8c#	2.r	2A
8b	8g	.	.
8a	8f#	.	.
8b	8g	.	.
8g	8e	.	2r
8ee	8g	.	.
8dd	8f#	4A	.
8ee	8g	.	.
=137	=137	=137	=137
8cc#	8e	8c#	1r
8gg	8ee	8r	.
8ff#	8dd	4c#	.
8gg	8ee	.	.
8ee	8cc#	8e	.
8bb	8gg	8r	.
8aa	8ff#	4e	.
8bb	8gg	.	.
=138	=138	=138	=138
8gg	8ee	8a	1r
8r	8r	8g#	.
4gg	4ee	8a	.
.	.	8g#	.
8ccc#	8gg	8a	.
8r	8r	8g#	.
4ccc#	4gg	8a	.
.	.	8g#	.
=139	=139	=139	=139
8eee	8ccc#	8a	1r
8r	8r	8g#	.
4eee	4ccc#	8a	.
.	.	8g#	.
8ggg	8eee	8a	.
8r	8r	8g#	.
4ggg	4eee	8a	.
.	.	8g#	.
=140	=140	=140	=140
8eee	8ccc#	8a	8a
8r	8r	8r	8g#
4eee	4ccc#	4gg	8a
.	.	.	8g#
8ccc#	8gg	8ee	8a
8r	8r	8r	8g#
4ccc#	4gg	4ee	8a
.	.	.	8g#
=141	=141	=141	=141
8aa	8ee	8cc#	8a
8r	8r	8r	8g#
4aa	4ee	4cc#	8a
.	.	.	8g#
8ff#	8ff#	8dd	8a
8r	8r	8r	8g
4ff#	4ff#	4f#	8f#
.	.	.	8e
=142	=142	=142	=142
8dd	8dd	8d	8d
8r	8r	8r	8r
4dd	4dd	4d	4d
8f#	8f#	8F#	8F#
8r	8r	8r	8r
4f#	4f#	4F#	4F#
=143	=143	=143	=143
2.a	2.a	2.A	2.A
8.f#	8.f#	8.F#	8.F#
16d	16d	16D	16D
=144	=144	=144	=144
4A	4A	4A	4AA
4A	4A	4A	4AA
4A	4A	4A	4AA
4A	4A	4A	4AA
=145	=145	=145	=145
2.A	[1A	2.A	4AA
.	.	.	8.E
.	.	.	16C#
.	.	.	[2AA
8.g	.	8.C#	.
16e	.	16E	.
=146	=146	=146	=146
4c#	1A_	4G	1AA_
4c#	.	4G	.
4c#	.	4G	.
4c#	.	4G	.
=147	=147	=147	=147
2.c#	2.A]	2.G	4AA]
.	.	.	8.E
.	.	.	16C#
.	.	.	[2AA
8.b	8.g	8.C#	.
16g	16e	16E	.
=148	=148	=148	=148
4e	4c#	4G	1AA_
4e	4c#	4G	.
4e	4c#	4G	.
4e	4c#	4G	.
=149	=149	=149	=149
2.e	2.c#	2.G	4AA]
.	.	.	8.E
.	.	.	16C#
.	.	.	[2AA
8.ee	8.cc#	8.E	.
16cc#	16g	16G	.
=150	=150	=150	=150
4g	4e	4c#	4AA]
4g	4e	4c#	4AA
4g	4e	4c#	4AA#
4g	4e	4c#	4AA#
=151	=151	=151	=151
4f#	2d	4d	4BB
4b	.	4B	4GG
4r	4r	4r	4r
4c#	[4A	4E	4GG
=152	=152	=152	=152
4d	4A]	4F#	4FF#
4g	2d	4G	4BB
4f#	.	4A	4AA
4e	4c#	4A 4G	4AA
=153	=153	=153	=153
2e	2c#	[2A 2G	4D
.	.	.	4AA
4f#	4d	4A 4F#]	4DD
4ddd	4r	4r	4r
=154	=154	=154	=154
8ff#	4r	1r	1r
8r	.	.	.
4ff#	8.dd	.	.
.	16b	.	.
8bb	4g	.	.
8r	.	.	.
4bb	8.g	.	.
.	16e	.	.
=155	=155	=155	=155
4ee	4c#	1r	1r
2aa	8.f#	.	.
.	16d	.	.
.	4B	.	.
8.gg	8.b	.	.
16ee	16g	.	.
=156	=156	=156	=156
4dd	4f#	1r	1r
4dd	8.b	.	.
.	16g#	.	.
4dd	4a	.	.
8.ee	4A	.	.
16ff#	.	.	.
=157	=157	=157	=157
4dd	4d	1r	1r
2.r	8.f#	.	.
.	16a	.	.
.	4dd	.	.
.	4gg	.	.
=158	=158	=158	=158
1r	8b	4r	1r
.	8r	.	.
.	4b	8.g	.
.	.	16e	.
.	8ee	4c	.
.	8r	.	.
.	4ee	8.c	.
.	.	16A	.
=159	=159	=159	=159
1r	4a	4F#	1r
.	2dd	8.B	.
.	.	16G	.
.	.	4E	.
.	8.cc	8.e	.
.	16a	16c	.
=160	=160	=160	=160
1r	4g	4B	1r
.	4g	8.e	.
.	.	16c#	.
.	4g	4d	.
.	8.a	4D	.
.	16b	.	.
=161	=161	=161	=161
4r	4g	4G	1r
8gg	4ee	2.r	.
8aa	.	.	.
8bb	4dd	.	.
8ccc	.	.	.
8aa	4d	.	.
8bb	.	.	.
=162	=162	=162	=162
4gg	4g	4r	1r
2.r	8g	4e	.
.	8a	.	.
.	8b	4d	.
.	8cc	.	.
.	8a	4D	.
.	8b	.	.
=163	=163	=163	=163
1r	4g	4G	4r
.	2.r	8G	4E
.	.	8A	.
.	.	8B	4D
.	.	8c	.
.	.	8A	4DD
.	.	8B	.
=164	=164	=164	=164
4r	4r	4G	4GG
8.aa	4dd	2r	2.r
16bb	.	.	.
4gg	4b	.	.
4r	8.a	4d	.
.	16b	.	.
=165	=165	=165	=165
2.r	4g	4B	4r
.	2r	8.A	4D
.	.	16B	.
.	.	4G	4BB
4ddd#	4ff#	4b	4B
=166	=166	=166	=166
2eee	2ee	2b	2G
2bb	2ff#	2b	2D#
=167	=167	=167	=167
4.gg	2ee	2b	2E
16ff#	.	.	.
16gg	.	.	.
[2ee	4r	4r	4r
.	4b	4e	4G
=168	=168	=168	=168
4ee]	2cc	2a	2F#
4dd#	.	.	.
4ccc	4r	4r	4r
4bb	4ff#	[4b	4D#
=169	=169	=169	=169
2aa	2ff#	4b]	4E
.	.	4dd#	2EE
4gg	4ee	4ee	.
4r	4r	4r	8FF#
.	.	.	8GG
=170	=170	=170	=170
2gg	[1cc# 1e	[1A	4AA
.	.	.	4C#
4gg	.	.	4E
4gg	.	.	4C#
=171	=171	=171	=171
8aa	8cc# 8e]	4A]	4AA
8gg	8ee	.	.
8ff#	8dd	4A	2.r
8ee	8cc#	.	.
[2ee	[2cc#	4a	.
.	.	4a	.
=172	=172	=172	=172
8ee]	8cc#]	[1a	1r
8ff#	8dd	.	.
8gg	8ee	.	.
8gg#	8ee#	.	.
4aa	4ff#	.	.
4gg	4ee	.	.
=173	=173	=173	=173
4ee#	4cc#	2.a]	4r
4ff#	4dd	.	4D
4r	4r	.	4d
4aa	4a	4f#	4d
=174	=174	=174	=174
4.bb	4.b	4.g	[1d
8ccc#	8cc#	8a	.
8ddd	8dd	8b	.
8ccc#	8cc#	8a	.
8ddd	8dd	8b	.
8bb	8b	8g	.
=175	=175	=175	=175
4aa	4a	4f#	4d]
4ff#	4f#	4d	4D
4r	4r	4r	4d
4aa	4a	4f#	4d
=176	=176	=176	=176
8bb	8b	8g	[1d
8ccc#	8cc#	8a	.
8ddd	8dd	8b	.
8ccc#	8cc#	8a	.
8ddd	8dd	8b	.
8ccc#	8cc#	8a	.
8ddd	8dd	8b	.
8bb	8b	8g	.
=177	=177	=177	=177
4aa	4a	4f#	4d]
4ff#	4f#	4d	4D
8r	8r	[2A	8r
8a	8f#	.	8D
8g	8e	.	8E
8f#	8d	.	8F#
=178	=178	=178	=178
8e	8c#	8A]	8G
8e	8c#	8A	8G
4e	4c#	8a	4G
.	.	8a	.
8r	8r	[2a	8r
8aa	8ff#	.	8d
8gg	8ee	.	8e
8ff#	8dd	.	8f#
=179	=179	=179	=179
8ee	8cc#	8a]	8g
8ee	8cc#	8a	8g
4ee	4cc#	8A	4g
.	.	8A	.
8r	8r	2A	8r
8a	8f	.	8D
8g	8e	.	8E
8f	8d	.	8F
=180	=180	=180	=180
4e	4c#	4B-	4G
4e	4c#	4B-	4G
4e	4c#	4B-	4G
4e	4c#	4B-	4G
=181	=181	=181	=181
2.e	1d	1B	2G#
.	.	.	2GG#
8f	.	.	.
8e	.	.	.
=182	=182	=182	=182
4e	8c#	4E	4AA
.	8e	.	.
2r	8c#	2.r	2.r
.	8e	.	.
.	8a	.	.
.	8e	.	.
4ee	8c#	.	.
.	8e	.	.
=183	=183	=183	=183
8cc#	8A	4r	2.r
8r	8c#	.	.
4cc#	8e	4A	.
.	8c#	.	.
8e	8G#	8B	.
8r	8B	8r	.
4e	8d	4G#	4E
.	8B	.	.
=184	=184	=184	=184
4a	8A	4e	8C#
.	8c#	.	8r
2r	8e	2.r	4C#
.	8a	.	.
.	8g#	.	8EE
.	8b	.	8r
4eee	8dd	.	4EE
.	8b	.	.
=185	=185	=185	=185
8ccc#	8e	4r	4AA
8r	8a	.	.
4ccc#	8cc#	4a	2r
.	8a	.	.
8ee	8g#	8b	.
8r	8b	8r	.
4ee	8dd	4g#	4e
.	8b	.	.
=186	=186	=186	=186
2.aa	8a	2ee	8c#
.	8cc#	.	8r
.	8ee	.	4c#
.	8cc#	.	.
.	8a	2cc#	8E
.	8cc#	.	8r
8.gg	8ee	.	4E
.	8cc#	.	.
16ee	.	.	.
=187	=187	=187	=187
8cc#	8g	2e	2.A
8r	8a	.	.
4cc#	8cc#	.	.
.	8a	.	.
8ee	8g	2c#	.
8r	8a	.	.
4ee	8cc#	.	8.G
.	8a	.	.
.	.	.	16E
=188	=188	=188	=188
2.a	8e	1A	8C#
.	8g	.	8r
.	8a	.	4C#
.	8g	.	.
.	8c#	.	8E
.	8e	.	8r
8b	8g	.	4E
8a	8e	.	.
=189	=189	=189	=189
4a	8G	2C#	2.AA
.	8c#	.	.
4a	8e	.	.
.	8c#	.	.
4g	8A	2E	.
.	8c#	.	.
4g	8e	.	8BB
.	8c#	.	8AA
=190	=190	=190	=190
4f#	8A	8D	4AA
.	8d	8F#	.
2r	8f#	[2.A	4AA
.	8d	.	.
.	8c#	.	4GG
.	8e	.	.
12a	8g	.	4GG
12b	.	.	.
.	8e	.	.
12cc#	.	.	.
=191	=191	=191	=191
4dd	8d	1A_	4FF#
.	8f#	.	.
4dd	8a	.	2r
.	8f#	.	.
4ee	8g	.	.
.	8a	.	.
4ee	8cc#	.	12AA
.	.	.	12BB
.	8a	.	.
.	.	.	12C#
=192	=192	=192	=192
12ff#	8f#	1A]	4D
12gg	.	.	.
.	8a	.	.
12ff#	.	.	.
12dd	8dd	.	4D
12ee	.	.	.
.	8a	.	.
12ff#	.	.	.
12gg	8g	.	4E
12aa	.	.	.
.	8a	.	.
12gg	.	.	.
12ee	8cc#	.	4E
12ff#	.	.	.
.	8a	.	.
12gg	.	.	.
=193	=193	=193	=193
4aa	8a	4A	12F#
.	.	.	12G
.	8dd	.	.
.	.	.	12F#
4r	8ff#	2a	12D
.	.	.	12E
.	8dd	.	.
.	.	.	12F#
4bb	8b	.	12G
.	.	.	12A
.	8dd	.	.
.	.	.	12G
4r	8gg	8g	12E
.	.	.	12F#
.	8dd	8b	.
.	.	.	12G
=194	=194	=194	=194
4ccc#	4gg	4ee	4A
4ddd	4ff#	4dd	4B
4r	2r	2r	2r
4dd	.	.	.
=195	=195	=195	=195
[1gg	2.r	4r	1r
.	.	4d	.
.	.	2b	.
.	4g	.	.
=196	=196	=196	=196
1gg_	2.ee-	1b-	4r
.	.	.	4BB-
.	.	.	4G
.	4dd	.	4E
=197	=197	=197	=197
4gg]	2cc#	2a	4A
4aa	.	.	4F#
8gg	[2dd	4d	4B
8ff#	.	.	.
8ee	.	4a	4F#
8dd	.	.	.
=198	=198	=198	=198
1ee	2dd]	2b	4G
.	.	.	4E
.	2cc#	4a	4A
.	.	4g	4AA
=199	=199	=199	=199
4dd	8dd	4f#	2BB
.	8b	.	.
2.r	8f#	2.r	.
.	8e	.	.
.	8d	.	4r
.	8f#	.	.
.	8d	.	4BB
.	8B	.	.
=200	=200	=200	=200
1r	8c#	1f#	2AA#
.	8e	.	.
.	8c#	.	.
.	8B	.	.
.	8A#	.	4r
.	8c#	.	.
.	8e	.	4FF#
.	8c#	.	.
=201	=201	=201	=201
1r	8B	2d	2BB
.	8d	.	.
.	8f#	.	.
.	8d	.	.
.	8f#	2B	8r
.	8d	.	8BB
.	8B	.	8D
.	8d	.	8BB
=202	=202	=202	=202
1r	8c#	2.F#	2AA#
.	8e	.	.
.	8f#	.	.
.	8e	.	.
.	8f#	.	8r
.	8e	.	8FF#
.	8c#	8G	8AA#
.	8e	8F#	8FF#
=203	=203	=203	=203
2.r	8d	2.F#	[1BB
.	8f#	.	.
.	8b	.	.
.	8f#	.	.
.	8d	.	.
.	8f#	.	.
4ff#	8b	4f#	.
.	8f#	.	.
=204	=204	=204	=204
8dd	8b	8d	1BB]
8r	8f#	8r	.
4dd	8d	4d	.
.	8f#	.	.
8f#	8d	8F#	.
8r	8f#	8r	.
4f#	8d	4F#	.
.	8B	.	.
=205	=205	=205	=205
2.a	8d	2.A	[1AA
.	8f#	.	.
.	8d	.	.
.	8A	.	.
.	8d	.	.
.	8f#	.	.
8.f#	8a	8.F#	.
.	8f#	.	.
16d	.	16D	.
=206	=206	=206	=206
4A	8g	4C#	1AA]
.	8e	.	.
4A	8A	4C#	.
.	8e	.	.
4A	8g	4C#	.
.	8e	.	.
4c#	8a	4E	.
.	8g	.	.
=207	=207	=207	=207
4d	8f	4D	2BB-
.	8b-	.	.
16gg	8dd	2.r	.
8.ff	.	.	.
.	8b-	.	.
[2ff	8d	.	4r
.	8f	.	.
.	8b-	.	4BB-
.	8f	.	.
=208	=208	=208	=208
4ff]	8e-	2.r	2AA
.	8f	.	.
16ee	8cc	.	.
8.ff	.	.	.
.	8f	.	.
[2ff	8c	.	4r
.	8f	.	.
.	8a	16f	4FF
.	.	8.e-	.
.	8f	.	.
=209	=209	=209	=209
4ff]	8f	2.d	2BB-
.	8b-	.	.
16ggg	8f	.	.
8.fff	.	.	.
.	8e-	.	.
[2fff	8d	.	8r
.	8f	.	8BB-
.	8b-	16cc#	8D
.	.	8.dd	.
.	8f	.	8BB-
=210	=210	=210	=210
4fff]	8c	2.ee-	2AA
.	8f	.	.
16eee	8cc	.	.
8.fff	.	.	.
.	8f	.	.
[2fff	8c	.	8r
.	8a	.	8FF
.	8cc	16ff	8AA
.	.	8.ee-	.
.	8a	.	8FF
=211	=211	=211	=211
4fff]	8b-	2.dd	[1BB-
.	8dd	.	.
16ggg	8b-	.	.
8.fff	.	.	.
.	8f	.	.
4fff	8d	.	.
.	8f	.	.
4fff	8b-	4ff	.
.	8f	.	.
=212	=212	=212	=212
8ddd	8g#	8dd	1BB-]
8r	8f	8r	.
4ddd	8g#	4dd	.
.	8f	.	.
8ff	8d	8f	.
8r	8f	8r	.
4ff	8g#	4f	.
.	8f	.	.
=213	=213	=213	=213
2.aa	8d	2.a	[1AA
.	8f#	.	.
.	8d	.	.
.	8A	.	.
.	8d	.	.
.	8f#	.	.
8.ff#	8a	8.f#	.
.	8f#	.	.
16dd	.	16d	.
=214	=214	=214	=214
4a	8c#	4A	1AA]
.	8e	.	.
4a	8g	4A	.
.	8e	.	.
4a	8g	4A	.
.	8e	.	.
4cc#	8a	4c#	.
.	8g	.	.
=215	=215	=215	=215
4dd	4f#	4d	4D
8dd	2r	2r	2r
16cc#	.	.	.
16dd	.	.	.
4b	.	.	.
8ee	4b	4e	4G
8r	.	.	.
=216	=216	=216	=216
4r	4dd	4b	4G#
8ff#	4cc#	4a	4A
16ee	.	.	.
16ff#	.	.	.
4dd	4r	4r	4r
8gg	4dd	4g	4B
8r	.	.	.
=217	=217	=217	=217
4r	2ee	4b-	4c
8aa	.	2a	4c#
16gg	.	.	.
16aa	.	.	.
4ff#	4dd	.	4d
4bb	8dd	4f	4G#
.	16cc#	.	.
.	16dd	.	.
=218	=218	=218	=218
4ee	4cc#	4e	4A
4aa	8cc	4e-	4F#
.	16b	.	.
.	16cc	.	.
4dd	4b	4d	4G
[4gg	8b-	8c#	4E
.	16a	8d	.
.	16b-	.	.
=219	=219	=219	=219
4gg]	2a	4e	4C#
4ff#	.	4d	4D
8ff#	8a	4b	4G
8ee	8g	.	.
8ee	8g	4a	4A
8cc#	8e	.	.
=220	=220	=220	=220
4dd	4f#	4a	4D
2r	2r	8f#	8D
.	.	16e	16C#
.	.	16f#	16D
.	.	4d	4BB
8gg	8e	8g	8E
16ff#	16d	8r	8r
16gg	16e	.	.
=221	=221	=221	=221
4ee	4c#	4r	4r
8aa	8f#	8a	8F#
4.r	4.r	16g	16E
.	.	16a	16F#
.	.	4f#	4D
8bb	8g	8b	8G
16aa	16f#	8r	8r
16bb	16g	.	.
=222	=222	=222	=222
4gg	4e	4r	4r
2ccc#	2a	8c#	8A
.	.	16B	16G
.	.	16c#	16A
.	.	4A	4F#
8ddd	4g#	4f	4B
16ccc#	.	.	.
16ddd	.	.	.
=223	=223	=223	=223
4ccc#	4g	4e	4B-
8ccc	4f#	4d#	4A
16bb	.	.	.
16ccc	.	.	.
4bb	4f	4d	4G#
8bb-	4e	4c#	[4G
16aa	.	.	.
16bb-	.	.	.
=224	=224	=224	=224
[2aa	4cc#	4e	4G]
.	4dd	8f#	4F#
.	.	8a	.
8aa]	8ff#	4b	4G
8gg	8ee	.	.
8ff#	8dd	8a	4A
8ee	8cc#	8g	.
=225	=225	=225	=225
4dd	8dd	8f#	2.D
.	8dd	8a 8f#	.
16ddd	8dd	8a 8f#	.
8.aa	.	.	.
.	8dd	8a 8f#	.
[2aa	8dd	8a 8f#	.
.	8dd	8a 8f#	.
.	8dd	8a 8f#	16F#
.	.	.	8.A
.	8dd	8a 8f#	.
=226	=226	=226	=226
4aa]	8dd	8a 8f#	2.d
.	8dd	8a 8f#	.
16ddd	8dd	8a 8f#	.
8.aa	.	.	.
.	8dd	8a 8f#	.
4aa	8dd	8a 8f#	.
.	8dd	8a 8f#	.
4aa	8dd	8a 8f#	16DD
.	.	.	8.FF#
.	8dd	8a 8f#	.
=227	=227	=227	=227
4bb	8dd	8b 8e	2.GG
.	8dd	8b 8e	.
16ddd	8dd	8b 8e	.
8.bb	.	.	.
.	8dd	8b 8e	.
[2bb	8dd	8b 8e	.
.	8dd	8b 8e	.
.	8gg	8dd	16E
.	.	.	8.G
.	8ff#	8dd	.
=228	=228	=228	=228
8bb]	8ee	8dd	2A
8aa	8ee	8dd	.
8aa	8ee	8cc#	.
8aa	8ee	8cc#	.
4aa	8ee	8cc#	2AA
.	8ee	8cc#	.
8bb	8ff#	8dd	.
8ccc#	8gg	8ee	.
=229	=229	=229	=229
4ddd	8ff#	8dd	2.D
.	8dd	8a 8f#	.
16ddd	8dd	8a 8f#	.
8.aa	.	.	.
.	8dd	8a 8f#	.
[2aa	8dd	8a 8f#	.
.	8dd	8a 8f#	.
.	8dd	8a 8f#	16F#
.	.	.	8.A
.	8dd	8a 8f#	.
=230	=230	=230	=230
4aa]	8dd	8a 8f#	2.d
.	8dd	8a 8f#	.
16ddd	8dd	8a 8f#	.
8.aa	.	.	.
.	8dd	8a 8f#	.
4aa	8dd	8a 8f#	.
.	8dd	8a 8f#	.
4aa	8dd	8a 8f#	16DD
.	.	.	8.FF#
.	8dd	8a 8f#	.
=231	=231	=231	=231
4bb	8dd	8b 8e	2.GG
.	8dd	8b 8e	.
16ddd	8dd	8b 8e	.
8.bb	.	.	.
.	8dd	8b 8e	.
[2bb	8dd	8b 8e	.
.	8dd	8b 8e	.
.	8gg	8dd	16E
.	.	.	8.G
.	8ff#	8dd	.
=232	=232	=232	=232
8bb]	8ee	8dd	2A
8aa	8ee	8dd	.
8aa	8ee	8cc#	.
8aa	8ee	8cc#	.
4aa	8ee	8cc#	2AA
.	8ee	8cc#	.
8bb	8ff#	8dd	.
8ccc#	8gg	8ee	.
=233	=233	=233	=233
4ddd	8ff#	4.dd	4BB
.	4bb	.	.
16ddd	.	.	2E
8.bb	.	.	.
.	8aa	8cc#	.
[2bb	8gg	8b	.
.	8ff#	8a	.
.	8ee	8g	8F#
.	8dd	8f#	8G
=234	=234	=234	=234
8bb]	8cc#	8e	2A
8aa	8cc#	8e	.
8aa	8dd	8f#	.
8aa	8dd	8f#	.
4aa	8ee	8g	2AA
.	8gg	8b	.
8bb	8ff#	8a	.
8ccc#	8ee	8g	.
=235	=235	=235	=235
4ddd	8dd	8f#	4BB
.	4b	4d	.
16ddd	.	.	2EE
8.bb	.	.	.
.	8a	8c#	.
[2bb	8g	8B	.
.	8f#	8A	.
.	8e	8G	8FF#
.	8d	8F#	8GG
=236	=236	=236	=236
8bb]	8c#	8E	1AA
8aa	8c#	8E	.
8aa	8d	8F#	.
8aa	8d	8F#	.
4aa	8e	8G	.
.	8f#	8A	.
8gg	8g	8B	.
8ee	8g	8c#	.
=237	=237	=237	=237
8dd	8f#	8d	4D
8ff#	8f#	8d	.
8aa	8f#	8d	4F#
8aa	8f#	8d	.
4aa	8e	8c#	4A
.	8e	8c#	.
8gg	8e	8c#	4AA
8ee	8g	8c#	.
=238	=238	=238	=238
8dd	8f#	8d	4D
8ff#	8f#	8d	.
8aa	8f#	8d	4F#
8aa	8f#	8d	.
4aa	8e	8c#	4A
.	8e	8c#	.
8gg	8e	8c#	4AA
8ee	8g	8c#	.
=239	=239	=239	=239
8dd	8f#	8d	8D
8ff#	8a	8r	8r
8ee	8g	8cc#	8A
8ff#	8a	8r	8r
8dd	8f#	8dd	8d
8ff#	8a	8r	8r
8ee	8g	8cc#	8A
8ff#	8a	8r	8r
=240	=240	=240	=240
4dd	4f#	4dd	4D
2.r	2.r	2.r	2.r
=241a	=241a	=241a	=241a
8ff	8dd	8a	8d
8aa	8ff	8r	8r
8gg	8ee	8cc#	8A
8aa	8ff	8r	8r
8ff	8dd	8dd	8d
8aa	8ff	8r	8r
8gg	8ee	8cc#	8A
8aa	8ff	8r	8r
=242a	=242a	=242a	=242a
4ff	4dd	4dd	4d
4r	4r	4r	4r
2r	2r	2r	2r
=241b	=241b	=241b	=241b
8bb	8dd	8f#	8BB
8ddd	8ff#	8r	8r
8ccc#	8ee	8a#	8F#
8ddd	8ff#	8r	8r
8bb	8dd	8b	8B
8ddd	8ff#	8r	8r
8ccc#	8ee	8a#	8F#
8ddd	8ff#	8r	8r
=242b	=242b	=242b	=242b
4bb	4dd	4b	4BB
4r	4r	4r	4r
2r	2r	2r	2r
=243	=243	=243	=243
8gg	8dd	8b	8G
8bb	8r	8dd	8r
8aa	8ff#	8cc	8d
8bb	8r	8dd	8r
8gg	8gg	8b	8g
8bb	8r	8dd	8r
8aa	8ff#	8cc	8d
8bb	8r	8dd	8r
=244	=244	=244	=244
8gg	4gg	4b	4G
8bb	.	.	.
8aa	2.r	2.r	2.r
8bb	.	.	.
8gg	.	.	.
8bb	.	.	.
8aa	.	.	.
8bb	.	.	.
=245	=245	=245	=245
8gg	8b-	1r	1r
8bb-	8dd	.	.
8aa	8cc	.	.
8bb-	8dd	.	.
8gg	8b-	.	.
8bb-	8dd	.	.
8aa	8cc	.	.
8bb-	8dd	.	.
=246	=246	=246	=246
8gg	8b-	1r	1r
8bb-	8dd	.	.
8aa	8cc	.	.
8bb-	8dd	.	.
8gg	8b-	.	.
8bb-	8dd	.	.
8aa	8cc	.	.
8bb-	8dd	.	.
=247	=247	=247	=247
1gg	8cc#	8a	1r
.	8ee	8cc#	.
.	8dd	8b	.
.	8ee	8cc#	.
.	8cc#	8a	.
.	8ee	8cc#	.
.	8dd	8b	.
.	8ee	8cc#	.
=248	=248	=248	=248
1A	8cc#	8a	1r
.	8gg	8ee	.
.	8ff#	8dd	.
.	8gg	8ee	.
.	8ee	8cc#	.
.	8gg	8ee	.
.	8ff#	8dd	.
.	8ee	8cc#	.
=249	=249	=249	=249
2.G#	2.ff	8dd	8G#
.	.	8d	8B
.	.	8c#	8A
.	.	8d	8B
.	.	8B	8G#
.	.	8d	8B
4fff	[4dd	8c#	8A
.	.	8d	8B
=250	=250	=250	=250
8ddd	4dd]	8B	8G#
8r	.	8d	8B
4ddd	2b	8c#	8A
.	.	8d	8B
8ff	.	8B	8G#
8r	.	8d	8B
4ff	4f	8c#	8A
.	.	8B	8B
=251	=251	=251	=251
2.aa	8f#	8d	1A
.	8a	8f#	.
.	8g	8e	.
.	8a	8f#	.
.	8f#	8d	.
.	8a	8f#	.
8.ff#	8g	8e	.
.	8f#	8d	.
16dd	.	.	.
=252	=252	=252	=252
4a	8g	8e	1AA
.	8g	8e	.
4a	8f#	8d	.
.	8g	8e	.
4a	8e	8c#	.
.	8g	8B	.
4cc#	8f#	8A	.
.	8e	8G	.
=253	=253	=253	=253
4dd	8d	4F#	4D
.	8c#	.	.
4r	8d	2.r	2.r
.	8c#	.	.
4r	8d	.	.
.	8c#	.	.
4aaa	8d	.	.
.	8c#	.	.
=254	=254	=254	=254
8fff#	8d	1r	1r
8r	8c#	.	.
4fff#	8d	.	.
.	8c#	.	.
8aa	8d	.	.
8r	8c#	.	.
4aa	8d	.	.
.	8c#	.	.
=255	=255	=255	=255
8ddd	8d	8D	1r
2r	8e	8C#	.
.	8f#	8D	.
.	8e	8C#	.
.	8f#	8D	.
8r	8e	8C#	.
4fff#	8f#	8D	.
.	8e	8C#	.
=256	=256	=256	=256
8ddd	8f#	8D	1r
8r	8e	8C#	.
4ddd	8f#	8D	.
.	8e	8C#	.
8ff#	8f#	8D	.
8r	8e	8C#	.
4ff#	8f#	8D	.
.	8e	8C#	.
=257	=257	=257	=257
4aa	8f#	8D	8DD
.	4a	8E	8CC#
2r	.	8F#	8DD
.	4a	8E	8CC#
.	.	8F#	8DD
.	4a	8E	8CC#
4ddd	.	8F#	8DD
.	[8a	8E	8CC#
=258	=258	=258	=258
8aa	8a]	8F#	8DD
8r	4a	8E	8CC#
4aa	.	8F#	8DD
.	4a	8E	8CC#
8dd	.	8F#	8DD
8r	4a	8E	8CC#
4dd	.	8F#	8DD
.	8a	8E	8CC#
=259	=259	=259	=259
8ff#	[1a	[1F#	[1DD
8ff#	.	.	.
8a	.	.	.
8a	.	.	.
8dd	.	.	.
8dd	.	.	.
8f#	.	.	.
8f#	.	.	.
=260	=260	=260	=260
8a	1a_	1F#_	1DD_
8a	.	.	.
8d	.	.	.
8d	.	.	.
8f#	.	.	.
8f#	.	.	.
8A	.	.	.
8A	.	.	.
=261	=261	=261	=261
8d	4a]	4F#]	4DD]
8f#	.	.	.
8e	2r	2r	2r
8f#	.	.	.
8d	.	.	.
8f#	.	.	.
8e	4c#	4G	4AA
8f#	.	.	.
=262	=262	=262	=262
8d	4d	4F#	4DD
8a	.	.	.
8g	2r	2r	2r
8a	.	.	.
8f#	.	.	.
8a	.	.	.
8g	4e	4c#	4A
8a	.	.	.
=263	=263	=263	=263
8f#	8f#	4d	4D
8ff#	8a	.	.
8ee	8g	2.r	2.r
8ff#	8a	.	.
8dd	8f#	.	.
8ff#	8a	.	.
8ee	8g	.	.
8ff#	8a	.	.
=264	=264	=264	=264
8dd	8f#	4r	1r
8aa	8ff#	.	.
8gg	8ee	8a	.
8aa	8ff#	8r	.
8ff#	8dd	8dd	.
8aa	8ff#	8r	.
8gg	8ee	8a	.
8aa	8ff#	8r	.
=265	=265	=265	=265
8ff#	8dd	8dd	4r
8fff#	8aa	8r	.
8eee	8gg	8cc#	8A
8fff#	8aa	8r	8r
8ddd	8ff#	8dd	8d
8fff#	8aa	8r	8r
8eee	8gg	8cc#	8A
8fff#	8aa	8r	8r
=266	=266	=266	=266
4ddd	4ff#	4dd	4d
2.r	2.r	2.r	2.r
==	==	==	==
*-	*-	*-	*-
!!!RWG1: This file contains only pitch and duration data.
!!!RWG2: Transposing instruments are not transposed.
!!!RWG3: Spines may have incompatible meters.
!!!RWG4: Durations of rests and tied notes may be interpreted.
!!!RWG: Key is interpreted using the Humdrum key tool.
!!!AFT: stage1
!!!END: 1997/04/15
!!format changes:
!!content changes:
!!public access: complete
!!!KEY: 1824789426
!!!EMD: Converted from MuseData to Humdrum Dec 16, 2000, by Andreas Kornstaedt using muse2kern.
